Yaru++/apps/16/update-notifier.svg

<svg height="16" width="16" xmlns="http://www.w3.org/2000/svg">
  <g fill="#808080">
    <g transform="translate(-492.00004 -280)">
      <path d="m496.99414 280c-1.2582.0145-2.17889-.0306-2.93164.38477-.37637.20766-.67323.55938-.83789.99804-.16467.43867-.22461.95958-.22461 1.61719v9c0 .65761.0599 1.17858.22461 1.61719.16468.43861.46153.78852.83789.99609.75272.41513 1.67354.37165 2.93164.38672h.002 5.00586.004c1.25819-.0145 2.17889.0306 2.93164-.38477.37637-.20766.67322-.55938.83789-.99804.16453-.43867.22447-.95958.22447-1.61719v-9c0-.65761-.0599-1.17858-.22461-1.61719-.16468-.43861-.46153-.78852-.83789-.99609-.75272-.41513-1.67355-.37165-2.93164-.38672h-.002-5.00586zm.006 1h5c1.25862.0152 2.0891.0599 2.45508.26172.18342.10116.28722.21286.38476.47266.09741.25979.16002.67323.16002 1.26562v9c0 .59239-.0626 1.00572-.16016 1.26562-.0976.25991-.20135.37147-.38476.47266-.36596.20192-1.19656.24701-2.45508.26172h-4.99414-.00586c-1.25863-.0152-2.0891-.0599-2.45508-.26172-.18342-.10116-.28722-.21286-.38476-.47266-.09755-.25979-.16016-.67323-.16016-1.26562v-9c0-.59239.0626-1.00572.16016-1.26562.0976-.25991.20331-.37147.38672-.47266.36595-.20191 1.1946-.24702 2.45312-.26172z"/>
      <path d="m495.3337 290c-.18466 0-.33333.1115-.33333.25v2.5c0 .1385.14867.25.33333.25h2.33299c.18466 0 .33333-.1115.33333-.25v-2.5c0-.1385-.14867-.25-.33333-.25z" opacity=".5"/>
      <rect height="1" opacity=".5" rx=".25" width="3" x="501" y="292"/>
      <rect height="1" opacity=".5" rx=".25" width="3" x="501" y="290"/>
      <path d="m6.9375 1v4h1.0625v-4zm0 7.2207031v5.7792969h1.0625v-5.6386719l-.4785156.6386719z" transform="translate(492.00004 280)"/>
    </g>
    <path d="m4.4311377 4s3 4 3 4l3.0000003-4z"/>
  </g>
</svg>

<svg xmlns="http://www.w3.org/2000/svg" xmlns:osb="http://www.openswatchbook.org/uri/2009/osb" width="16" height="16" version="1.1">
 <defs>
  <linearGradient id="linearGradient5606" osb:paint="solid">
   <stop id="stop5608" offset="0" style="stop-color:#000000"/>
  </linearGradient>
  <linearGradient id="linearGradient4526" osb:paint="solid">
   <stop id="stop4528" offset="0" style="stop-color:#ffffff"/>
  </linearGradient>
  <linearGradient id="linearGradient3600-4" osb:paint="gradient">
   <stop id="stop3602-7" offset="0" style="stop-color:#f4f4f4"/>
   <stop id="stop3604-6" offset="1" style="stop-color:#dbdbdb"/>
  </linearGradient>
 </defs>
 <g transform="translate(-492.00004,-280)">
  <path d="m 496.99414,280 c -1.2582,0.0145 -2.17889,-0.0306 -2.93164,0.38477 -0.37637,0.20766 -0.67323,0.55938 -0.83789,0.99804 C 493.05994,281.82148 493,282.34239 493,283 v 9 c 0,0.65761 0.0599,1.17858 0.22461,1.61719 0.16468,0.43861 0.46153,0.78852 0.83789,0.99609 0.75272,0.41513 1.67354,0.37165 2.93164,0.38672 h 0.002 5.00586 0.004 c 1.25819,-0.0145 2.17889,0.0306 2.93164,-0.38477 0.37637,-0.20766 0.67322,-0.55938 0.83789,-0.99804 C 505.94006,293.17852 506,292.65761 506,292 v -9 c 0,-0.65761 -0.0599,-1.17858 -0.22461,-1.61719 -0.16468,-0.43861 -0.46153,-0.78852 -0.83789,-0.99609 -0.75272,-0.41513 -1.67355,-0.37165 -2.93164,-0.38672 h -0.002 -5.00586 z m 0.006,1 h 5 c 1.25862,0.0152 2.0891,0.0599 2.45508,0.26172 0.18342,0.10116 0.28722,0.21286 0.38476,0.47266 C 504.93739,281.99417 505,282.40761 505,283 v 9 c 0,0.59239 -0.0626,1.00572 -0.16016,1.26562 -0.0976,0.25991 -0.20135,0.37147 -0.38476,0.47266 C 504.08912,293.9402 503.25852,293.98529 502,294 H 497.00586 497 c -1.25863,-0.0152 -2.0891,-0.0599 -2.45508,-0.26172 -0.18342,-0.10116 -0.28722,-0.21286 -0.38476,-0.47266 C 494.06261,293.00583 494,292.59239 494,292 v -9 c 0,-0.59239 0.0626,-1.00572 0.16016,-1.26562 0.0976,-0.25991 0.20331,-0.37147 0.38672,-0.47266 C 494.91283,281.05981 495.74148,281.0147 497,281 Z" style="fill:#808080"/>
  <path d="m 495.3337,290 c -0.18466,0 -0.33333,0.1115 -0.33333,0.25 v 2.5 c 0,0.1385 0.14867,0.25 0.33333,0.25 h 2.33299 c 0.18466,0 0.33333,-0.1115 0.33333,-0.25 v -2.5 c 0,-0.1385 -0.14867,-0.25 -0.33333,-0.25 z" style="opacity:0.5;fill:#808080"/>
  <rect width="3" height="1" x="501" y="292" rx=".25" ry=".25" style="opacity:0.5;fill:#808080"/>
  <rect width="3" height="1" x="501" y="290" rx=".25" ry=".25" style="opacity:0.5;fill:#808080"/>
  <path style="fill:#808080" d="M 6.9375 1 L 6.9375 5 L 8 5 L 8 1 L 6.9375 1 z M 6.9375 8.2207031 L 6.9375 14 L 8 14 L 8 8.3613281 L 7.5214844 9 L 6.9375 8.2207031 z" transform="translate(492.00004,280)"/>
 </g>
 <path style="fill:#808080" d="m 4.4311377,4 c 0,0 3,4 3,4 L 10.431138,4 Z"/>
</svg>
